X:1
T:Ciel d'Automne
L:1/8
Q:1/4=100
M:4/4
K:D
|:"D"D!p! D,8 |"G"GD D,8"D" |"D"DB B,,8"Bm" |"G"G G,,4"A"A A,,4 |
"G"G E,,4"A"A A,,4 |"Bm"B B,,2"A"A"G" A,,2G G,,4 |"D"DG D,8"G" |1"A"AD A,,8"D" :|2"A"A A,,4"D"D D,4 |
"G"G G,,4"D"D D,4 |"G"G G,,2 A,,2"D"D D,4 |"G"G G,,4"D"D D,4 |"Em"E E,,2"A" F,,G,,A A,,4 |
"G"G E,,4"A"A A,,4 |"Bm"B B,,2"A"A"G" A,,2G G,,4 |"D"DG D,8"G" |1"A"AD A,,8"D" :|2"A"A A,,4D"D" D,4 |
